X: 73
T: SLIDES: Brosna Set
T: Brosna No. 1
C: C: Trad.; S: Denis Murphy & Julia Clifford
C: Set Leaders: Tania, Anton, Sophie, Andrey
Z: Anton Zille ed., Oleg Naumov arr.; fidicen / Jeremy at The Session
N: https://thesession.org/members/26966/sets/92423
R: Slide
M: 12/8
L: 1/8
Q: 3/8=130
K: Gmaj
|:"G"D2G G2A BAB d2B|"D"A2D FED A2D FED|
"G"D2G G2A BAB d2B|1 "D"A2D FED "G"G2G GFE:|2 "D"A2D FED "G"G2G GBd||
|:"Em"g2f efg "Bm"f2e d2B|"C"c2B A2B "C"c2d "D"e2f|
"Em"g2f efg "Bm"f2e d2B|1 "C"c2A "D"F2A "G"G2G GBd:|2 "C"c2A "D"F2A "G"G2G GFE||
T: Dan O'Keeffe's / Danny Ab's No. 2
K: Ador
|:"Am"A2e e2d BAB "G"d2B|"Am"A2e e2d "G"B2G GFG|
"Am"A2e e2d BAB d3|1 "G"BAB d2e "Em"B2A A2G:|2 "G"BAB d2e "Em"B2A A2e||
|:"Am"e2a a2b a2g e2d|"Am"efg a2b "Am"a2g "D"e2f|
"G"g3 gfe dBA G2A|1 "Em"BAB d2e B2A ABd:|2 "Em"BAB d2e "Em"B2A "G"A2G||

